!!!OTL: Jaegers Beruf
!!!ARE: Europa, Mitteleuropa, Deutschland
!!!SCT: A0447
!!!YEM: Copyright 1995, estate of Helmut Schaffrath.
**kern
*ICvox
*Ivox
*M4/2
*k[f#]
*G:
{2g
=1
2g
2a
2b
2g
=2
1dd
1cc
=3
1b
2r}
{2b
=4
2cc
2b
1ff#
=5
2ff#
2dd
2ff#
2gg
=6
1ee
1dd
=7
2r}
{2dd
2dd
2dd
=8
1.ff#
2dd
=9
1.gg
4ff#
4ee
=10
2ff#
2gg
1ee
=11
1dd
2r}
{2g
=12
2b
2cc
1dd
=13
2r
2g
2b
2a
=14
1g
2r}
{2gg
=15
2gg
2gg
1ff#
=16
2ee
2dd
4cc
4b
4a
4g
=17
1a
1g
=18
2r}
{2gg
2gg
2gg
=19
1ff#
2ee
2dd
=20
4cc
4b
4a
4g
1a
=21
1.g}
==
!!!AGN: Romanze, Ballade, Lied, Jaegerlied
!! 68 Lieder. Nuernberg bei Berg und Newber 1549 No. 12.
!!!ONB: ESAC (Essen Associative Code) Database: ALTDEU
!!!AMT: simple quadruple
!!!AIN: vox
!!!EED: Helmut Schaffrath
!!!EEV: 1.0
*-
